Newaita-dark/apps/24/gnome-power-statistics.svg

<svg height="24pt" viewBox="0 0 24 24" width="24pt" xmlns="http://www.w3.org/2000/svg" xmlns:xlink="http://www.w3.org/1999/xlink"><linearGradient id="a"><stop offset="0" stop-opacity=".313725"/><stop offset=".222222" stop-opacity=".27451"/><stop offset="1" stop-opacity="0"/></linearGradient><radialGradient id="b" cx="450.90894" cy="189.57936" gradientTransform="matrix(.00000013 -.0585994 -.105479 -.00000008 38.105705 47.696502)" gradientUnits="userSpaceOnUse" r="21.166656" xlink:href="#a"/><radialGradient id="c" cx="450.90894" cy="189.57936" gradientTransform="matrix(-.00000013 .0585994 .105479 .00000008 -10.321803 -5.645608)" gradientUnits="userSpaceOnUse" r="21.166656" xlink:href="#a"/><radialGradient id="d" cx="450.90894" cy="189.57936" gradientTransform="matrix(-.00000013 -.0585994 .105479 -.00000008 -10.321803 47.696502)" gradientUnits="userSpaceOnUse" r="21.166656" xlink:href="#a"/><radialGradient id="e" cx="450.90894" cy="189.57936" gradientTransform="matrix(.00000013 .0585994 -.105479 .00000008 38.105704 -5.645609)" gradientUnits="userSpaceOnUse" r="21.166656" xlink:href="#a"/><linearGradient id="f" gradientTransform="matrix(.01002 0 0 .0468795 8.604827 10.07909)" gradientUnits="userSpaceOnUse" x1="255.32306" x2="255.32304" y1="233.5" y2="254.66666"><stop offset="0" stop-opacity=".27451"/><stop offset="1" stop-opacity="0"/></linearGradient><linearGradient id="g" gradientUnits="userSpaceOnUse" x1="254" x2="254" y1="-168.66667" y2="233.5"><stop offset="0" stop-color="#616161"/><stop offset="1" stop-color="#424242"/></linearGradient><linearGradient id="h" gradientUnits="userSpaceOnUse" x1="11.907393" x2="11.907393" y1="2.17207784373" y2="21.02545025"><stop offset="0" stop-color="#90a4ae"/><stop offset="1" stop-color="#78909c"/></linearGradient><linearGradient id="i"><stop offset="0" stop-color="#ffa726"/><stop offset="1" stop-color="#ffb74d"/></linearGradient><linearGradient id="j" gradientUnits="userSpaceOnUse" x1="9.42668596873" x2="9.42668596873" xlink:href="#i" y1="21.02545025" y2="2.17207831253"/><linearGradient id="k" gradientUnits="userSpaceOnUse" x1="16.3726655" x2="16.3726655" xlink:href="#i" y1="21.02545325" y2="14.07947412501"/><linearGradient id="l" gradientUnits="userSpaceOnUse" x1="18.35723131253" x2="18.35723131253" y1="21.02545325" y2="12.0949085"><stop offset="0" stop-color="#66bb6a"/><stop offset="1" stop-color="#81c784"/></linearGradient><linearGradient id="m" gradientUnits="userSpaceOnUse" x1="14.38809968747" x2="14.38809968747" y1="21.02545325" y2="16.06403918747"><stop offset="0" stop-color="#ef5350"/><stop offset="1" stop-color="#e57373"/></linearGradient><path d="m18.355469 21.027344h1.984375v-.996094h-1.984375zm0 0" fill="url(#b)"/><path d="m9.425781 21.027344h-1.984375v.992187h1.984375zm0 0" fill="url(#c)"/><path d="m9.425781 21.027344h-1.984375v-.996094h1.984375zm0 0" fill="url(#d)"/><path d="m18.355469 21.027344h1.984375v.992187h-1.984375zm0 0" fill="url(#e)"/><path d="m9.425781 20.777344h8.929688v1.242187h-8.929688zm0 0" fill="url(#f)"/><path d="m253.975747-168.671091c111.072726 0 201.147458 89.991406 201.147458 201.064133 0 111.072726-90.074732 201.147458-201.147458 201.147458-110.989402 0-201.064133-90.074732-201.064133-201.147458 0-111.072727 90.074731-201.064133 201.064133-201.064133zm0 0" fill="url(#g)" stroke="#333" stroke-linecap="round" stroke-width="3" transform="matrix(.0468795 0 0 .0468795 0 10.079087)"/><path d="m2.480469 11.675781c.042969 5.1875 4.230469 9.351563 9.425781 9.351563 5.199219 0 9.386719-4.164063 9.425781-9.351563-7.5-5.59375-10.496093 5.488281-18.851562 0zm0 0" fill="url(#h)"/><path d="m11.90625 20.964844c-5.222656 0-9.425781-4.207032-9.425781-9.429688 0-.027344 0-.058594 0-.089844.050781 5.179688 4.234375 9.332032 9.425781 9.332032s9.378906-4.152344 9.425781-9.332032c0 .03125.003907.0625.003907.089844 0 5.222656-4.207032 9.429688-9.429688 9.429688zm0 0" fill-opacity=".196078"/><path d="m11.90625 2.234375c-5.222656 0-9.425781 4.203125-9.425781 9.425781v.09375c.050781-5.179687 4.234375-9.335937 9.425781-9.335937s9.378906 4.15625 9.425781 9.335937c0-.03125.003907-.0625.003907-.09375 0-5.222656-4.207032-9.425781-9.429688-9.425781zm0 0" fill="#fff" fill-opacity=".392157"/><path d="m11.90625 2.101562c-5.257812 0-9.496094 4.238282-9.496094 9.496094 0 5.261719 4.238282 9.5 9.496094 9.5 5.261719 0 9.5-4.238281 9.5-9.5 0-5.257812-4.238281-9.496094-9.5-9.496094zm0 .140626c5.1875 0 9.359375 4.171874 9.359375 9.355468 0 5.1875-4.171875 9.359375-9.359375 9.359375-5.183594 0-9.355469-4.171875-9.355469-9.359375 0-5.183594 4.171875-9.355468 9.355469-9.355468zm0 0" fill="#212121"/><path d="m8.433594 17.550781 7.441406-5.953125-2.976562-.992187 2.480468-4.960938-7.441406 5.953125 2.976562.992188zm0 0" fill="url(#j)" fill-rule="evenodd"/><path d="m15.378906 5.644531-7.441406 5.953125.4375.148438 6.59375-5.273438zm-2.265625 5.03125-.214843.425781 2.539062.847657.4375-.351563zm-2.410156 2.339844-2.269531 4.535156.414062-.328125 2.066406-4.136718zm0 0" fill="#fff" fill-opacity=".392157" fill-rule="evenodd"/><path d="m15.378906 6.140625-.617187.496094-1.863281 3.722656.320312.105469zm-6.785156 5.429687-.65625.523438 2.660156.886719.316406-.636719zm6.625.304688-6.164062 4.933594-.621094 1.238281 7.441406-5.953125zm0 0" fill-opacity=".235294" fill-rule="evenodd"/><path d="m179.899487 159.380915 158.734842-126.987873-63.493937-21.164646 52.911614-105.823227-158.734842 126.987873 63.493937 21.164645zm0 0" fill="none" stroke="#212121" stroke-width="3" transform="matrix(.0468795 0 0 .0468795 0 10.079087)"/><path d="m15.875 14.078125h.992188c.277343 0 .496093.222656.496093.496094v5.957031c0 .273438-.21875.496094-.496093.496094h-.992188c-.273438 0-.496094-.222656-.496094-.496094v-5.957031c0-.273438.222656-.496094.496094-.496094zm0 0" fill="url(#k)"/><path d="m17.859375 12.09375h.992187c.277344 0 .496094.222656.496094.496094v7.941406c0 .273438-.21875.496094-.496094.496094h-.992187c-.273437 0-.496094-.222656-.496094-.496094v-7.941406c0-.273438.222657-.496094.496094-.496094zm0 0" fill="url(#l)"/><path d="m13.890625 16.0625h.992187c.277344 0 .496094.222656.496094.496094v3.972656c0 .273438-.21875.496094-.496094.496094h-.992187c-.273437 0-.496094-.222656-.496094-.496094v-3.972656c0-.273438.222657-.496094.496094-.496094zm0 0" fill="url(#m)"/><path d="m15.875 14.078125c-.273438 0-.496094.222656-.496094.496094v.25c0-.277344.222656-.496094.496094-.496094h.992188c.277343 0 .496093.21875.496093.496094v-.25c0-.273438-.21875-.496094-.496093-.496094zm0 0" fill="#fff" fill-opacity=".392157"/><path d="m17.859375 12.09375c-.273437 0-.496094.222656-.496094.496094v.25c0-.277344.222657-.496094.496094-.496094h.992187c.277344 0 .496094.21875.496094.496094v-.25c0-.273438-.21875-.496094-.496094-.496094zm0 0" fill="#fff" fill-opacity=".392157"/><path d="m13.890625 16.0625c-.273437 0-.496094.222656-.496094.496094v.25c0-.273438.222657-.496094.496094-.496094h.992187c.277344 0 .496094.222656.496094.496094v-.25c0-.273438-.21875-.496094-.496094-.496094zm0 0" fill="#fff" fill-opacity=".392157"/><path d="m16.867188 21.027344c.277343 0 .496093-.222656.496093-.496094v-.25c0 .273438-.21875.496094-.496093.496094h-.992188c-.273438 0-.496094-.222656-.496094-.496094v.25c0 .273438.222656.496094.496094.496094zm0 0" fill-opacity=".235294"/><path d="m14.882812 21.027344c.277344 0 .496094-.222656.496094-.496094v-.25c0 .273438-.21875.496094-.496094.496094h-.992187c-.273437 0-.496094-.222656-.496094-.496094v.25c0 .273438.222657.496094.496094.496094zm0 0" fill-opacity=".235294"/><path d="m18.851562 21.027344c.277344 0 .496094-.222656.496094-.496094v-.25c0 .273438-.21875.496094-.496094.496094h-.992187c-.273437 0-.496094-.222656-.496094-.496094v.25c0 .273438.222657.496094.496094.496094zm0 0" fill-opacity=".235294"/><g stroke-linecap="round" stroke-width="3"><path d="m338.634329 85.304656h21.164645c5.916102 0 10.582323 4.749546 10.582323 10.582322v127.071199c0 5.832776-4.666221 10.582323-10.582323 10.582323h-21.164645c-5.832777 0-10.582323-4.749547-10.582323-10.582323v-127.071199c0-5.832776 4.749546-10.582322 10.582323-10.582322zm0 0" fill="none" stroke="#212121" stroke-linejoin="round" transform="matrix(.0468795 0 0 .0468795 0 10.079087)"/><path d="m380.96362 42.975365h21.164645c5.916102 0 10.582323 4.749546 10.582323 10.582322v169.40049c0 5.832776-4.666221 10.582323-10.582323 10.582323h-21.164645c-5.832777 0-10.582323-4.749547-10.582323-10.582323v-169.40049c0-5.832776 4.749546-10.582322 10.582323-10.582322zm0 0" fill="none" stroke="#212121" stroke-linejoin="round" transform="matrix(.0468795 0 0 .0468795 0 10.079087)"/><path d="m296.305038 127.633947h21.164645c5.916102 0 10.582323 4.749546 10.582323 10.582323v84.741907c0 5.832776-4.666221 10.582323-10.582323 10.582323h-21.164645c-5.832777 0-10.582323-4.749547-10.582323-10.582323v-84.741907c0-5.832777 4.749546-10.582323 10.582323-10.582323zm0 0" fill="none" stroke="#212121" stroke-linejoin="round" transform="matrix(.0468795 0 0 .0468795 0 10.079087)"/></g></svg>

<?xml version="1.0" encoding="UTF-8"?>
<svg xmlns="http://www.w3.org/2000/svg" xmlns:xlink="http://www.w3.org/1999/xlink" width="24pt" height="24pt" viewBox="0 0 24 24" version="1.1">
<defs>
<radialGradient id="radial0" gradientUnits="userSpaceOnUse" cx="450.90894" cy="189.57936" fx="450.90894" fy="189.57936" r="21.166656" gradientTransform="matrix(0.000000130628,-0.0585994,-0.105479,-0.0000000761539,38.105705,47.696502)">
<stop offset="0" style="stop-color:rgb(0%,0%,0%);stop-opacity:0.313725;"/>
<stop offset="0.222222" style="stop-color:rgb(0%,0%,0%);stop-opacity:0.27451;"/>
<stop offset="1" style="stop-color:rgb(0%,0%,0%);stop-opacity:0;"/>
</radialGradient>
<radialGradient id="radial1" gradientUnits="userSpaceOnUse" cx="450.90894" cy="189.57936" fx="450.90894" fy="189.57936" r="21.166656" gradientTransform="matrix(-0.000000130628,0.0585994,0.105479,0.0000000761539,-10.321803,-5.645608)">
<stop offset="0" style="stop-color:rgb(0%,0%,0%);stop-opacity:0.313725;"/>
<stop offset="0.222222" style="stop-color:rgb(0%,0%,0%);stop-opacity:0.27451;"/>
<stop offset="1" style="stop-color:rgb(0%,0%,0%);stop-opacity:0;"/>
</radialGradient>
<radialGradient id="radial2" gradientUnits="userSpaceOnUse" cx="450.90894" cy="189.57936" fx="450.90894" fy="189.57936" r="21.166656" gradientTransform="matrix(-0.000000130628,-0.0585994,0.105479,-0.0000000761539,-10.321803,47.696502)">
<stop offset="0" style="stop-color:rgb(0%,0%,0%);stop-opacity:0.313725;"/>
<stop offset="0.222222" style="stop-color:rgb(0%,0%,0%);stop-opacity:0.27451;"/>
<stop offset="1" style="stop-color:rgb(0%,0%,0%);stop-opacity:0;"/>
</radialGradient>
<radialGradient id="radial3" gradientUnits="userSpaceOnUse" cx="450.90894" cy="189.57936" fx="450.90894" fy="189.57936" r="21.166656" gradientTransform="matrix(0.000000130628,0.0585994,-0.105479,0.0000000761539,38.105704,-5.645609)">
<stop offset="0" style="stop-color:rgb(0%,0%,0%);stop-opacity:0.313725;"/>
<stop offset="0.222222" style="stop-color:rgb(0%,0%,0%);stop-opacity:0.27451;"/>
<stop offset="1" style="stop-color:rgb(0%,0%,0%);stop-opacity:0;"/>
</radialGradient>
<linearGradient id="linear0" gradientUnits="userSpaceOnUse" x1="255.32306" y1="233.5" x2="255.32304" y2="254.66666" gradientTransform="matrix(0.01002,0,0,0.0468795,8.604827,10.07909)">
<stop offset="0" style="stop-color:rgb(0%,0%,0%);stop-opacity:0.27451;"/>
<stop offset="1" style="stop-color:rgb(0%,0%,0%);stop-opacity:0;"/>
</linearGradient>
<linearGradient id="linear1" gradientUnits="userSpaceOnUse" x1="254" y1="-168.66667" x2="254" y2="233.5" gradientTransform="matrix(1,0,0,1,0,0)">
<stop offset="0" style="stop-color:rgb(38.039216%,38.039216%,38.039216%);stop-opacity:1;"/>
<stop offset="1" style="stop-color:rgb(25.882353%,25.882353%,25.882353%);stop-opacity:1;"/>
</linearGradient>
<linearGradient id="linear2" gradientUnits="userSpaceOnUse" x1="254" y1="-168.66667" x2="254" y2="233.5" gradientTransform="matrix(0.0468795,0,0,0.0468795,0,10.079087)">
<stop offset="0" style="stop-color:rgb(56.470588%,64.313725%,68.235294%);stop-opacity:1;"/>
<stop offset="1" style="stop-color:rgb(47.058824%,56.470588%,61.176471%);stop-opacity:1;"/>
</linearGradient>
<linearGradient id="linear3" gradientUnits="userSpaceOnUse" x1="201.08333" y1="233.5" x2="201.08333" y2="-168.66666" gradientTransform="matrix(0.0468795,0,0,0.0468795,0,10.079087)">
<stop offset="0" style="stop-color:rgb(100%,65.490196%,14.901961%);stop-opacity:1;"/>
<stop offset="1" style="stop-color:rgb(100%,71.764706%,30.196078%);stop-opacity:1;"/>
</linearGradient>
<linearGradient id="linear4" gradientUnits="userSpaceOnUse" x1="381" y1="233.5" x2="381" y2="85.333336" gradientTransform="matrix(0.0468795,0,0,0.0468795,-1.488424,10.07909)">
<stop offset="0" style="stop-color:rgb(100%,65.490196%,14.901961%);stop-opacity:1;"/>
<stop offset="1" style="stop-color:rgb(100%,71.764706%,30.196078%);stop-opacity:1;"/>
</linearGradient>
<linearGradient id="linear5" gradientUnits="userSpaceOnUse" x1="423.33334" y1="233.5" x2="423.33334" y2="43" gradientTransform="matrix(0.0468795,0,0,0.0468795,-1.488424,10.07909)">
<stop offset="0" style="stop-color:rgb(40%,73.333333%,41.568627%);stop-opacity:1;"/>
<stop offset="1" style="stop-color:rgb(50.588235%,78.039216%,51.764706%);stop-opacity:1;"/>
</linearGradient>
<linearGradient id="linear6" gradientUnits="userSpaceOnUse" x1="338.66666" y1="233.5" x2="338.66666" y2="127.66666" gradientTransform="matrix(0.0468795,0,0,0.0468795,-1.488424,10.07909)">
<stop offset="0" style="stop-color:rgb(93.72549%,32.54902%,31.372549%);stop-opacity:1;"/>
<stop offset="1" style="stop-color:rgb(89.803922%,45.098039%,45.098039%);stop-opacity:1;"/>
</linearGradient>
</defs>
<g id="surface1">
<path style=" stroke:none;fill-rule:nonzero;fill:url(#radial0);" d="M 18.355469 21.027344 L 20.339844 21.027344 L 20.339844 20.03125 L 18.355469 20.03125 Z M 18.355469 21.027344 "/>
<path style=" stroke:none;fill-rule:nonzero;fill:url(#radial1);" d="M 9.425781 21.027344 L 7.441406 21.027344 L 7.441406 22.019531 L 9.425781 22.019531 Z M 9.425781 21.027344 "/>
<path style=" stroke:none;fill-rule:nonzero;fill:url(#radial2);" d="M 9.425781 21.027344 L 7.441406 21.027344 L 7.441406 20.03125 L 9.425781 20.03125 Z M 9.425781 21.027344 "/>
<path style=" stroke:none;fill-rule:nonzero;fill:url(#radial3);" d="M 18.355469 21.027344 L 20.339844 21.027344 L 20.339844 22.019531 L 18.355469 22.019531 Z M 18.355469 21.027344 "/>
<path style=" stroke:none;fill-rule:nonzero;fill:url(#linear0);" d="M 9.425781 20.777344 L 18.355469 20.777344 L 18.355469 22.019531 L 9.425781 22.019531 Z M 9.425781 20.777344 "/>
<path style="fill-rule:nonzero;fill:url(#linear1);stroke-width:3;stroke-linecap:round;stroke-linejoin:miter;stroke:rgb(20%,20%,20%);stroke-opacity:1;stroke-miterlimit:4;" d="M 253.975747 -168.671091 C 365.048473 -168.671091 455.123205 -78.679685 455.123205 32.393042 C 455.123205 143.465768 365.048473 233.5405 253.975747 233.5405 C 142.986345 233.5405 52.911614 143.465768 52.911614 32.393042 C 52.911614 -78.679685 142.986345 -168.671091 253.975747 -168.671091 Z M 253.975747 -168.671091 " transform="matrix(0.0468795,0,0,0.0468795,0,10.079087)"/>
<path style=" stroke:none;fill-rule:nonzero;fill:url(#linear2);" d="M 2.480469 11.675781 C 2.523438 16.863281 6.710938 21.027344 11.90625 21.027344 C 17.105469 21.027344 21.292969 16.863281 21.332031 11.675781 C 13.832031 6.082031 10.835938 17.164062 2.480469 11.675781 Z M 2.480469 11.675781 "/>
<path style=" stroke:none;fill-rule:nonzero;fill:rgb(0%,0%,0%);fill-opacity:0.196078;" d="M 11.90625 20.964844 C 6.683594 20.964844 2.480469 16.757812 2.480469 11.535156 C 2.480469 11.507812 2.480469 11.476562 2.480469 11.445312 C 2.53125 16.625 6.714844 20.777344 11.90625 20.777344 C 17.097656 20.777344 21.285156 16.625 21.332031 11.445312 C 21.332031 11.476562 21.335938 11.507812 21.335938 11.535156 C 21.335938 16.757812 17.128906 20.964844 11.90625 20.964844 Z M 11.90625 20.964844 "/>
<path style=" stroke:none;fill-rule:nonzero;fill:rgb(100%,100%,100%);fill-opacity:0.392157;" d="M 11.90625 2.234375 C 6.683594 2.234375 2.480469 6.4375 2.480469 11.660156 C 2.480469 11.691406 2.480469 11.722656 2.480469 11.753906 C 2.53125 6.574219 6.714844 2.417969 11.90625 2.417969 C 17.097656 2.417969 21.285156 6.574219 21.332031 11.753906 C 21.332031 11.722656 21.335938 11.691406 21.335938 11.660156 C 21.335938 6.4375 17.128906 2.234375 11.90625 2.234375 Z M 11.90625 2.234375 "/>
<path style=" stroke:none;fill-rule:nonzero;fill:rgb(12.941176%,12.941176%,12.941176%);fill-opacity:1;" d="M 11.90625 2.101562 C 6.648438 2.101562 2.410156 6.339844 2.410156 11.597656 C 2.410156 16.859375 6.648438 21.097656 11.90625 21.097656 C 17.167969 21.097656 21.40625 16.859375 21.40625 11.597656 C 21.40625 6.339844 17.167969 2.101562 11.90625 2.101562 Z M 11.90625 2.242188 C 17.09375 2.242188 21.265625 6.414062 21.265625 11.597656 C 21.265625 16.785156 17.09375 20.957031 11.90625 20.957031 C 6.722656 20.957031 2.550781 16.785156 2.550781 11.597656 C 2.550781 6.414062 6.722656 2.242188 11.90625 2.242188 Z M 11.90625 2.242188 "/>
<path style=" stroke:none;fill-rule:evenodd;fill:url(#linear3);" d="M 8.433594 17.550781 L 15.875 11.597656 L 12.898438 10.605469 L 15.378906 5.644531 L 7.9375 11.597656 L 10.914062 12.589844 Z M 8.433594 17.550781 "/>
<path style=" stroke:none;fill-rule:evenodd;fill:rgb(100%,100%,100%);fill-opacity:0.392157;" d="M 15.378906 5.644531 L 7.9375 11.597656 L 8.375 11.746094 L 14.96875 6.472656 Z M 13.113281 10.675781 L 12.898438 11.101562 L 15.4375 11.949219 L 15.875 11.597656 Z M 10.703125 13.015625 L 8.433594 17.550781 L 8.847656 17.222656 L 10.914062 13.085938 Z M 10.703125 13.015625 "/>
<path style=" stroke:none;fill-rule:evenodd;fill:rgb(0%,0%,0%);fill-opacity:0.235294;" d="M 15.378906 6.140625 L 14.761719 6.636719 L 12.898438 10.359375 L 13.21875 10.464844 Z M 8.59375 11.570312 L 7.9375 12.09375 L 10.597656 12.980469 L 10.914062 12.34375 Z M 15.21875 11.875 L 9.054688 16.808594 L 8.433594 18.046875 L 15.875 12.09375 Z M 15.21875 11.875 "/>
<path style="fill:none;stroke-width:3;stroke-linecap:butt;stroke-linejoin:miter;stroke:rgb(12.941176%,12.941176%,12.941176%);stroke-opacity:1;stroke-miterlimit:4;" d="M 179.899487 159.380915 L 338.634329 32.393042 L 275.140392 11.228396 L 328.052006 -94.594831 L 169.317164 32.393042 L 232.811101 53.557687 Z M 179.899487 159.380915 " transform="matrix(0.0468795,0,0,0.0468795,0,10.079087)"/>
<path style=" stroke:none;fill-rule:nonzero;fill:url(#linear4);" d="M 15.875 14.078125 L 16.867188 14.078125 C 17.144531 14.078125 17.363281 14.300781 17.363281 14.574219 L 17.363281 20.53125 C 17.363281 20.804688 17.144531 21.027344 16.867188 21.027344 L 15.875 21.027344 C 15.601562 21.027344 15.378906 20.804688 15.378906 20.53125 L 15.378906 14.574219 C 15.378906 14.300781 15.601562 14.078125 15.875 14.078125 Z M 15.875 14.078125 "/>
<path style=" stroke:none;fill-rule:nonzero;fill:url(#linear5);" d="M 17.859375 12.09375 L 18.851562 12.09375 C 19.128906 12.09375 19.347656 12.316406 19.347656 12.589844 L 19.347656 20.53125 C 19.347656 20.804688 19.128906 21.027344 18.851562 21.027344 L 17.859375 21.027344 C 17.585938 21.027344 17.363281 20.804688 17.363281 20.53125 L 17.363281 12.589844 C 17.363281 12.316406 17.585938 12.09375 17.859375 12.09375 Z M 17.859375 12.09375 "/>
<path style=" stroke:none;fill-rule:nonzero;fill:url(#linear6);" d="M 13.890625 16.0625 L 14.882812 16.0625 C 15.160156 16.0625 15.378906 16.285156 15.378906 16.558594 L 15.378906 20.53125 C 15.378906 20.804688 15.160156 21.027344 14.882812 21.027344 L 13.890625 21.027344 C 13.617188 21.027344 13.394531 20.804688 13.394531 20.53125 L 13.394531 16.558594 C 13.394531 16.285156 13.617188 16.0625 13.890625 16.0625 Z M 13.890625 16.0625 "/>
<path style=" stroke:none;fill-rule:nonzero;fill:rgb(100%,100%,100%);fill-opacity:0.392157;" d="M 15.875 14.078125 C 15.601562 14.078125 15.378906 14.300781 15.378906 14.574219 L 15.378906 14.824219 C 15.378906 14.546875 15.601562 14.328125 15.875 14.328125 L 16.867188 14.328125 C 17.144531 14.328125 17.363281 14.546875 17.363281 14.824219 L 17.363281 14.574219 C 17.363281 14.300781 17.144531 14.078125 16.867188 14.078125 Z M 15.875 14.078125 "/>
<path style=" stroke:none;fill-rule:nonzero;fill:rgb(100%,100%,100%);fill-opacity:0.392157;" d="M 17.859375 12.09375 C 17.585938 12.09375 17.363281 12.316406 17.363281 12.589844 L 17.363281 12.839844 C 17.363281 12.5625 17.585938 12.34375 17.859375 12.34375 L 18.851562 12.34375 C 19.128906 12.34375 19.347656 12.5625 19.347656 12.839844 L 19.347656 12.589844 C 19.347656 12.316406 19.128906 12.09375 18.851562 12.09375 Z M 17.859375 12.09375 "/>
<path style=" stroke:none;fill-rule:nonzero;fill:rgb(100%,100%,100%);fill-opacity:0.392157;" d="M 13.890625 16.0625 C 13.617188 16.0625 13.394531 16.285156 13.394531 16.558594 L 13.394531 16.808594 C 13.394531 16.535156 13.617188 16.3125 13.890625 16.3125 L 14.882812 16.3125 C 15.160156 16.3125 15.378906 16.535156 15.378906 16.808594 L 15.378906 16.558594 C 15.378906 16.285156 15.160156 16.0625 14.882812 16.0625 Z M 13.890625 16.0625 "/>
<path style=" stroke:none;fill-rule:nonzero;fill:rgb(0%,0%,0%);fill-opacity:0.235294;" d="M 16.867188 21.027344 C 17.144531 21.027344 17.363281 20.804688 17.363281 20.53125 L 17.363281 20.28125 C 17.363281 20.554688 17.144531 20.777344 16.867188 20.777344 L 15.875 20.777344 C 15.601562 20.777344 15.378906 20.554688 15.378906 20.28125 L 15.378906 20.53125 C 15.378906 20.804688 15.601562 21.027344 15.875 21.027344 Z M 16.867188 21.027344 "/>
<path style=" stroke:none;fill-rule:nonzero;fill:rgb(0%,0%,0%);fill-opacity:0.235294;" d="M 14.882812 21.027344 C 15.160156 21.027344 15.378906 20.804688 15.378906 20.53125 L 15.378906 20.28125 C 15.378906 20.554688 15.160156 20.777344 14.882812 20.777344 L 13.890625 20.777344 C 13.617188 20.777344 13.394531 20.554688 13.394531 20.28125 L 13.394531 20.53125 C 13.394531 20.804688 13.617188 21.027344 13.890625 21.027344 Z M 14.882812 21.027344 "/>
<path style=" stroke:none;fill-rule:nonzero;fill:rgb(0%,0%,0%);fill-opacity:0.235294;" d="M 18.851562 21.027344 C 19.128906 21.027344 19.347656 20.804688 19.347656 20.53125 L 19.347656 20.28125 C 19.347656 20.554688 19.128906 20.777344 18.851562 20.777344 L 17.859375 20.777344 C 17.585938 20.777344 17.363281 20.554688 17.363281 20.28125 L 17.363281 20.53125 C 17.363281 20.804688 17.585938 21.027344 17.859375 21.027344 Z M 18.851562 21.027344 "/>
<path style="fill:none;stroke-width:3;stroke-linecap:round;stroke-linejoin:round;stroke:rgb(12.941176%,12.941176%,12.941176%);stroke-opacity:1;stroke-miterlimit:4;" d="M 338.634329 85.304656 L 359.798974 85.304656 C 365.715076 85.304656 370.381297 90.054202 370.381297 95.886978 L 370.381297 222.958177 C 370.381297 228.790953 365.715076 233.5405 359.798974 233.5405 L 338.634329 233.5405 C 332.801552 233.5405 328.052006 228.790953 328.052006 222.958177 L 328.052006 95.886978 C 328.052006 90.054202 332.801552 85.304656 338.634329 85.304656 Z M 338.634329 85.304656 " transform="matrix(0.0468795,0,0,0.0468795,0,10.079087)"/>
<path style="fill:none;stroke-width:3;stroke-linecap:round;stroke-linejoin:round;stroke:rgb(12.941176%,12.941176%,12.941176%);stroke-opacity:1;stroke-miterlimit:4;" d="M 380.96362 42.975365 L 402.128265 42.975365 C 408.044367 42.975365 412.710588 47.724911 412.710588 53.557687 L 412.710588 222.958177 C 412.710588 228.790953 408.044367 233.5405 402.128265 233.5405 L 380.96362 233.5405 C 375.130843 233.5405 370.381297 228.790953 370.381297 222.958177 L 370.381297 53.557687 C 370.381297 47.724911 375.130843 42.975365 380.96362 42.975365 Z M 380.96362 42.975365 " transform="matrix(0.0468795,0,0,0.0468795,0,10.079087)"/>
<path style="fill:none;stroke-width:3;stroke-linecap:round;stroke-linejoin:round;stroke:rgb(12.941176%,12.941176%,12.941176%);stroke-opacity:1;stroke-miterlimit:4;" d="M 296.305038 127.633947 L 317.469683 127.633947 C 323.385785 127.633947 328.052006 132.383493 328.052006 138.21627 L 328.052006 222.958177 C 328.052006 228.790953 323.385785 233.5405 317.469683 233.5405 L 296.305038 233.5405 C 290.472261 233.5405 285.722715 228.790953 285.722715 222.958177 L 285.722715 138.21627 C 285.722715 132.383493 290.472261 127.633947 296.305038 127.633947 Z M 296.305038 127.633947 " transform="matrix(0.0468795,0,0,0.0468795,0,10.079087)"/>
</g>
</svg>
